X:1
T:Old Joe Clark
L:1/8
M:2/4
S:Viola "Mom" Ruth - Pioneer Western Folk Tunes (1948)
K:A
E|[E2A2] [E2A2]|ed [E2c2]|Ac B^G|(E2 E)E|[E2A2] [E2A2]|
ed [E2c2]|Ac BE|[E2A2][EA]||A|[c2e2] [c>e>]f|=gfe>d|ef=gf|
(e2 e)A|e2 e>f|gfe>c|Ac BE|A3||

